X: 3044
Q:"Reel."
M: C
L: 1/8
K: G
uG |\
d |\
g2g2 ecce | ^caca fdd=c |\
(B/c/d) (gd) ecce | (^c/d/e) (ae) fddg |\
bdBg ecAc | (B/c/d) (DF) G3 |]


